!!!COM:	Martini, Johannes
!!!CDT:	~1440///-~1497//
!!!OTL:	Nisi Dominus
!!!AGN:	Motet
!!!SCT:	Mar2076
!!!SCA:	Mar2076
!!!voices:	2
**kern	**kern
*staff2	*staff1
*Ivox	*Ivox
*I"Tenor	*I"Superius
*I'T	*I'S
*>[A,B,C,D,E,F,G,H]	*>[A,B,C,D,E,F,G,H]
*>A	*>A
*clefGv2	*clefG2
*k[]	*k[]
*M2/1	*M2/1
*met(C)	*met(C)
=1-	=1-
!!section: In vanum laboraverunt
!!!OMD: In vanum laboraverunt
!!LO:TX:Z=8:t=Choir 1
1c	1cc
2e\	2cc\
2e\	2cc\
=2	=2
2e\	2cc\
2e\	2cc\
2e\	2cc\
2e\	2cc\
=3	=3
1e	1cc
2d\	2b\
2B\	2g/
=4	=4
2c\	2a/
1d	1b
2c\	[2a/
=5	=5
1B	2a/]
.	2g#i/
1Al	1al
=6||	=6||
*>B	*>B
!!section: Nisi Dominus custodierit
!!!OMD: Nisi Dominus custodierit
!!LO:TX:Z=8:t=Choir 2
1c	1a
1c	1cc
=7	=7
2e\	2cc\
2e\	2cc\
1e	1cc
=8	=8
2e\	2cc\
2e\	2cc\
1e	2cc\
.	2cc\
=9	=9
1d	1b
1c	1a
=10	=10
2B\	2g/
2c\	1cc
1d	.
.	2b\
=11	=11
1c	1cc
1r	1r
=12	=12
2e\	2cc\
2e\	2cc\
2e\	2cc\
2e\	2cc\
=13	=13
1e	1cc
2e\	2cc\
2d\	2b\
=14	=14
2c\	2a/
1d	1b
2c\	[2a/
=15	=15
1B	2a/]
.	2g#i/
1Al	1al
=16||	=16||
*>C	*>C
!!section: Vanum est vobis
!!!OMD: Vanum est vobis
!!LO:TX:Z=8:t=Choir 1
2e\	2cc\
2e\	2cc\
2e\	2cc\
2e\	2cc\
=17	=17
1e	1cc
2e\	2cc\
2e\	2cc\
=18	=18
1d	1b
2e\	2cc\
[2f\	[2dd\
=19	=19
4f\]	4dd\]
4e\	4cc\
2c\	1cc
1d	.
.	2b\
=20	=20
1c	1cc
1r	1r
=21	=21
2e\	2cc\
2e\	2cc\
2e\	2cc\
2e\	2cc\
=22	=22
1e	1cc
2d\	2b\
2c\	[2a/
=23	=23
1B	2a/]
.	2g#i/
1A	1a
=24	=24
1e	1cc
2e\	2cc\
2e\	2cc\
=25	=25
1e	1cc
1d	1b
=26	=26
2e\	2cc\
2f\	2.dd\
2.d\	.
.	4cc\
.	4b\
4c\	4a/
=27	=27
2B\	2g/
2A/	1a
1B	.
.	2g#i/
=28	=28
0Al	0al
=29||	=29||
*>D	*>D
!!section: Cum dederit
!!!OMD: Cum dederit
!!LO:TX:Z=8:t=Choir 2
1c	1cc
2e\	2cc\
2e\	2cc\
=30	=30
1e	2cc\
.	2cc\
1e	1cc
=31	=31
2d\	2b\
2c\	2a/
2B\	2g/
2c\	[2cc\
=32	=32
1d	2cc\]
.	2b\
1c	1cc
=33	=33
1r	1r
2e\	2cc\
2e\	2cc\
=34	=34
2e\	2cc\
2e\	2cc\
2e\	2cc\
2e\	2cc\
=35	=35
2e\	2cc\
2e\	2cc\
1e	1cc
=36	=36
2r	2r
2e\	2cc\
1e	2cc\
.	2cc\
=37	=37
2d\	2b\
2B\	2g/
2c\	2a/
[2d\	[2b\
=38	=38
4d\]	4b\]
4c\	4a/
2A/	1a
1B	.
.	2g#i/
=39	=39
0Al	0al
=40||	=40||
*>E	*>E
!!section: Sicut sagitte
!!!OMD: Sicut sagitte
!!LO:TX:Z=8:t=Choir 1
2e\	2cc\
2e\	2cc\
2e\	2cc\
2e\	2cc\
=41	=41
1e	1cc
2c\	2a/
2d\	2b\
=42	=42
2e\	2cc\
1f	1dd
2e\	[2cc\
=43	=43
1d	2cc\]
.	2b\
1c	1cc
=44	=44
1r	1r
2e\	2cc\
2e\	2cc\
=45	=45
1e	1cc
2e\	2cc\
2e\	2cc\
=46	=46
2d\	2b\
2c\	1a
1B	.
.	2g#i/
=47	=47
0Al	0al
=48||	=48||
*>F	*>F
!!LO:TX:Z=8:t=Choir 2
!!section: Beatus vir
!!!OMD: Beatus vir
1c	1a
2e\	2cc\
2e\	2cc\
=49	=49
1e	1cc
2e\	2cc\
2e\	2cc\
=50	=50
1e	1cc
1e	1cc
=51	=51
2e\	2cc\
2d\	2b\
2c\	2a/
2c\	2a/
=52	=52
2B\	2.g/
2c\	.
.	4a/
2d\	2b\
2c\	[2cc\
=53	=53
1d	2cc\]
.	2b\
1c	1cc
=54	=54
1r	1r
2e\	2cc\
2e\	2cc\
=55	=55
2e\	2cc\
2e\	2cc\
1e	1cc
=56	=56
2d\	2b\
2c\	2a/
1d	1b
=57	=57
1c	1a
2r	2r
2e\	2cc\
=58	=58
2e\	2cc\
2e\	2cc\
1e	1cc
=59	=59
2e\	2cc\
2d\	2b\
2c\	2a/
[2d\	[2b\
=60	=60
2d\]	4b\]
.	4a/
2c\	1a
1B	.
.	2g#i/
=61	=61
0Al	0al
=62||	=62||
*>G	*>G
!!section: Gloria Patri
!!!OMD: Gloria Patri
!!LO:TX:Z=8:t=Choir 1
1e	1cc
2e\	2cc\
2e\	2cc\
=63	=63
1e	1cc
2e\	2cc\
2d\	[2dd\
=64	=64
2f\	4dd\]
.	4cc\
2e\	1cc
1d	.
.	2b\
=65	=65
1c	1cc
1r	1r
=66	=66
1e	1cc
2e\	2cc\
2d\	2b\
=67	=67
2e\	2cc\
2f\	2.dd\
2.d\	.
.	4cc\
.	4b\
4c\	4a/
=68	=68
2B\	2g/
2A/	1a
1B	.
.	2g#i/
=69	=69
0Al	0al
=70||	=70||
*>H	*>H
!!LO:TX:Z=8:t=Choir 2
!!section: Sicut erat
!!!OMD: Sicut erat
1c	1a
2e\	2cc\
2e\	2cc\
=71	=71
1e	1cc
2e\	2cc\
2e\	2cc\
=72	=72
2e\	2cc\
2e\	2cc\
1e	1cc
=73	=73
1c	2r
.	2cc\
2d\	2b\
2e\	2cc\
=74	=74
1f	1dd
1c	1cc
=75	=75
1r	1r
2e\	2cc\
2e\	2cc\
=76	=76
2e\	2cc\
2e\	2cc\
1e	1cc
=77	=77
2d\	2b\
2B\	2g/
2c\	2a/
[2d\	[2b\
=78	=78
4d\]	4b\]
4c\	4a/
2A/	1a
1B	.
.	2g#i/
=79	=79
0Al	0al
==	==
*-	*-
!!!RDF**kern: l=long note in original notation
!!!RDF**kern: i=editorial accidental
!!!ENC:	Chris Gage 02-10-2014
!!!END:	2014/10/05/
!!!EED:	Jesse Rodin
!!!EEV:	2014/10/18/
!!!ONB:	Translated from MusicXML and edited on 2014/10/18/ by Craig Sapp
!!muse2ps: C^@{COM}^i2I150v85,150Q16
